brandFactory_export/1.Light/Cara emoji triste_1Light.svg

<?xml version="1.0" encoding="UTF-8"?>
<svg width="24px" height="24px" viewBox="0 0 24 24" version="1.1" xmlns="http://www.w3.org/2000/svg" xmlns:xlink="http://www.w3.org/1999/xlink">
    <title>1.Light/Cara emoji triste_1Light</title>
    <g id="Symbols" stroke="none" stroke-width="1" fill="none" fill-rule="evenodd">
        <g id="1.Light/Cara-emoji-triste_1Light" fill="#5CB615" fill-rule="nonzero">
            <path d="M12.9058824,13.9394958 C17.2655462,13.9865546 19.8067227,16.7596639 19.9142857,16.8773109 C20.092437,17.0823529 20.0689076,17.394958 19.8638655,17.5731092 C19.6655462,17.7445378 19.3630252,17.7310924 19.1815126,17.5361345 C19.1579832,17.512605 16.805042,14.9680672 12.8789916,14.9243697 C12.8252101,14.9277311 8.85546218,14.7932773 6.44537815,17.4890756 C6.26386555,17.6907563 5.95462185,17.7109244 5.74957983,17.5294118 C5.54789916,17.3478992 5.52773109,17.0386555 5.7092437,16.8336134 C8.43529412,13.7848739 12.7277311,13.9428571 12.9058824,13.9394958 L12.9058824,13.9394958 Z M12.8084034,22.6386555 C19.994958,22.6386555 23.6386555,18.9983193 23.6386555,11.8151261 C23.6386555,4.62857143 19.994958,0.98487395 12.8084034,0.98487395 C5.62521008,0.98487395 1.98487395,4.62857143 1.98487395,11.8151261 C1.98487395,18.9983193 5.62521008,22.6386555 12.8084034,22.6386555 Z M12.8084034,0 C20.2705882,0 24.6235294,3.76806723 24.6235294,11.8151261 C24.6235294,19.8621849 20.2705882,23.6235294 12.8084034,23.6235294 C5.34621849,23.6235294 1,19.8621849 1,11.8151261 C1,3.76806723 5.34621849,0 12.8084034,0 Z M9.22857143,9.94621849 C8.83529412,9.94621849 8.5092437,9.82521008 8.28403361,9.59663866 C8.06218487,9.37142857 7.9512605,9.05882353 7.9512605,8.66554622 C7.9512605,7.86218487 8.42857143,7.38487395 9.22857143,7.38487395 C10.0285714,7.38487395 10.5058824,7.86554622 10.5058824,8.66554622 C10.5058824,9.05882353 10.394958,9.37142857 10.1731092,9.59663866 C9.94789916,9.82521008 9.62184874,9.94621849 9.22857143,9.94621849 L9.22857143,9.94621849 Z M16.394958,9.94621849 C16.0016807,9.94621849 15.6756303,9.82521008 15.4504202,9.59663866 C15.2285714,9.37142857 15.1176471,9.05882353 15.1176471,8.66554622 C15.1176471,7.86218487 15.594958,7.38487395 16.394958,7.38487395 C17.194958,7.38487395 17.6722689,7.86554622 17.6722689,8.66554622 C17.6722689,9.05882353 17.5613445,9.37142857 17.3394958,9.59663866 C17.1142857,9.82521008 16.7882353,9.94621849 16.394958,9.94621849 Z" id="Cara-emoji-triste_1Light"></path>
        </g>
    </g>
</svg>

<svg width="24" height="24" viewBox="0 0 24 24" xmlns="http://www.w3.org/2000/svg"><path d="M12.906 13.94c4.36.047 6.9 2.82 7.008 2.937a.493.493 0 01-.733.659c-.023-.023-2.376-2.568-6.302-2.612-.054.004-4.024-.13-6.434 2.565a.494.494 0 01-.736-.655c2.726-3.05 7.019-2.891 7.197-2.895zm-.098 8.699c7.187 0 10.83-3.64 10.83-10.824 0-7.186-3.643-10.83-10.83-10.83-7.183 0-10.823 3.644-10.823 10.83 0 7.183 3.64 10.824 10.823 10.824zm0-22.639c7.463 0 11.816 3.768 11.816 11.815S20.27 23.624 12.808 23.624C5.346 23.624 1 19.862 1 11.815 1 3.768 5.346 0 12.808 0zm-3.58 9.946c-.393 0-.719-.12-.944-.35-.222-.225-.333-.537-.333-.93 0-.804.478-1.281 1.278-1.281s1.277.48 1.277 1.28c0 .394-.111.706-.333.932-.225.228-.551.35-.944.35zm7.167 0c-.393 0-.72-.12-.945-.35-.221-.225-.332-.537-.332-.93 0-.804.477-1.281 1.277-1.281.8 0 1.277.48 1.277 1.28 0 .394-.11.706-.333.932-.225.228-.55.35-.944.35z" fill="#5CB615" fill-rule="nonzero"/></svg>
